images/phone.svg

<svg xmlns="http://www.w3.org/2000/svg" width="22" height="22">
    <path fill="#369C6D" fill-rule="evenodd" d="M18.735 8.683a1.087 1.087 0 0 1-2.172 0 3.259 3.259 0 0 0-3.257-3.261 1.086 1.086 0 0 1 0-2.174 5.433 5.433 0 0 1 5.429 5.435zm-10.498.136l4.934 4.938.822-.822a3.485 3.485 0 0 1 4.933 0l.822.822a3.495 3.495 0 0 1 0 4.94l-.822.823a2.412 2.412 0 0 1-.139.129.272.272 0 0 1-.04.051l-.718.718c-1.981 1.984-5.06 2.118-6.876.3-2.179-1.583-3.973-3.079-5.382-4.491-1.148-1.149-2.643-2.945-4.485-5.388-1.816-1.818-1.682-4.901.299-6.885l.718-.718a.327.327 0 0 1 .051-.041c.04-.047.083-.093.128-.139l.822-.823a3.485 3.485 0 0 1 4.933 0l.823.823a3.496 3.496 0 0 1 0 4.939l-.823.824zm13.755-.136a1.087 1.087 0 0 1-2.172 0 6.518 6.518 0 0 0-6.514-6.522 1.086 1.086 0 1 1 0-2.174c4.797 0 8.686 3.893 8.686 8.696zM6.593 7.172l.822-.823a1.166 1.166 0 0 0 0-1.647l-.822-.823a1.162 1.162 0 0 0-1.644 0l-.823.823-.982.987C2.071 6.761 2.108 8.37 2.93 9.193l.115.114.097.129c1.782 2.364 3.215 4.086 4.273 5.145 1.316 1.317 3.026 2.729 5.111 4.244l.141.116.13.13c.822.823 2.429.861 3.488-.203l.995-.996.824-.822a1.165 1.165 0 0 0 0-1.646l-.822-.823a1.162 1.162 0 0 0-1.645 0l-.822.823c-.908.91-2.381.91-3.289 0l-4.933-4.939a2.33 2.33 0 0 1 0-3.293z"/>
</svg>

<svg 
 xmlns="http://www.w3.org/2000/svg"
 xmlns:xlink="http://www.w3.org/1999/xlink"
 width="7.761mm" height="7.761mm">
<path fill-rule="evenodd"  fill="rgb(252, 230, 179)"
 d="M18.735,8.683 C18.735,9.283 18.249,9.770 17.649,9.770 C17.049,9.770 16.563,9.283 16.563,8.683 C16.563,6.882 15.105,5.422 13.306,5.422 C12.707,5.422 12.221,4.935 12.221,4.335 C12.221,3.735 12.707,3.248 13.306,3.248 C16.304,3.248 18.735,5.682 18.735,8.683 ZM8.238,8.819 L13.171,13.757 L13.993,12.935 C15.355,11.571 17.564,11.571 18.926,12.935 L19.749,13.757 C21.111,15.122 21.111,17.333 19.749,18.697 L18.926,19.520 C18.881,19.565 18.835,19.608 18.787,19.649 C18.776,19.667 18.763,19.684 18.747,19.700 L18.029,20.418 C16.048,22.402 12.969,22.536 11.153,20.718 C8.975,19.135 7.181,17.639 5.771,16.227 C4.623,15.078 3.128,13.282 1.286,10.839 C-0.530,9.021 -0.396,5.938 1.585,3.954 L2.303,3.236 C2.319,3.220 2.336,3.207 2.354,3.195 C2.394,3.148 2.437,3.102 2.482,3.056 L3.304,2.233 C4.667,0.869 6.875,0.869 8.238,2.233 L9.060,3.056 C10.422,4.420 10.422,6.631 9.060,7.995 L8.238,8.819 ZM21.992,8.683 C21.992,9.283 21.506,9.770 20.906,9.770 C20.306,9.770 19.820,9.283 19.820,8.683 C19.820,5.081 16.904,2.161 13.306,2.161 C12.707,2.161 12.221,1.675 12.221,1.074 C12.221,0.474 12.707,-0.013 13.306,-0.013 C18.103,-0.013 21.992,3.880 21.992,8.683 ZM6.593,7.172 L7.415,6.349 C7.869,5.895 7.869,5.157 7.415,4.702 L6.593,3.879 C6.139,3.425 5.403,3.425 4.949,3.879 L4.127,4.702 L3.144,5.689 C2.071,6.761 2.108,8.370 2.931,9.193 L3.045,9.307 L3.142,9.436 C4.925,11.800 6.358,13.522 7.415,14.581 C8.731,15.898 10.441,17.310 12.526,18.825 L12.667,18.941 L12.797,19.071 C13.619,19.894 15.226,19.932 16.285,18.868 L17.280,17.872 L18.104,17.050 C18.558,16.596 18.558,15.859 18.104,15.404 L17.282,14.581 C16.828,14.126 16.092,14.126 15.638,14.581 L14.815,15.404 C13.907,16.314 12.435,16.314 11.526,15.404 L6.593,10.465 C5.685,9.556 5.685,8.081 6.593,7.172 Z"/>
</svg>
